Papirus/22x22/panel/state-ok.svg

<?xml version="1.0" encoding="UTF-8" standalone="no"?>
<svg xmlns:osb="http://www.openswatchbook.org/uri/2009/osb" xmlns:dc="http://purl.org/dc/elements/1.1/" xmlns:cc="http://creativecommons.org/ns#" xmlns:rdf="http://www.w3.org/1999/02/22-rdf-syntax-ns#" xmlns:svg="http://www.w3.org/2000/svg" xmlns="http://www.w3.org/2000/svg" width="22" version="1.1" style="enable-background:new" id="svg7384" height="22">
    <metadata id="metadata90">
        <rdf:RDF>
            <cc:Work rdf:about="">
                <dc:format>
                    image/svg+xml
                </dc:format>
                <dc:type rdf:resource="http://purl.org/dc/dcmitype/StillImage"/>
                <dc:title>
                    Paper Symbolic Icon Theme
                </dc:title>
            </cc:Work>
        </rdf:RDF>
    </metadata>
    <title id="title8473">
        Paper Symbolic Icon Theme
    </title>
    <defs id="defs7386">
        <linearGradient osb:paint="solid" id="linearGradient5606">
            <stop style="stop-color:#000000;stop-opacity:1;" offset="0" id="stop5608"/>
        </linearGradient>
        <filter style="color-interpolation-filters:sRGB" id="filter7554">
            <feBlend mode="darken" in2="BackgroundImage" id="feBlend7556"/>
        </filter>
    </defs>
    <g transform="translate(-624.00001,-502)" style="display:inline" id="g6058">
        <path id="path4169" transform="translate(624.00001,502)" d="M 11 3 C 6.58173 3 3 6.58173 3 11 C 3 15.41827 6.58173 19 11 19 C 15.41827 19 19 15.41827 19 11 C 19 6.58173 15.41827 3 11 3 z M 14.181641 7.4648438 L 15.595703 8.8789062 L 11.353516 13.121094 L 9.9394531 14.535156 L 8.5253906 13.121094 L 6.4042969 11 L 7.8183594 9.5859375 L 9.9394531 11.707031 L 14.181641 7.4648438 z " style="opacity:1;fill:#ffffff;fill-opacity:1;stroke:none"/>
        <g style="fill:#000000;fill-opacity:1" transform="matrix(3.5433071,0,0,3.5433071,624.00001,502)" id="g4158">
            <g style="fill:#000000;fill-opacity:1" transform="matrix(0.28222222,0,0,0.28222222,-10.6045,0.2470856)" id="g6">
                <g style="fill:#000000;fill-opacity:1" transform="matrix(0.42297932,0,0,0.42297932,-11.083711,3.1945516)" id="g8">
<!--color: #004794-->
                </g>
            </g>
            <g transform="matrix(0.28222222,0,0,0.28222222,-10.392658,1.2296495)" style="fill:#000000;fill-opacity:1;stroke:#000000;stroke-width:1;stroke-miterlimit:4;stroke-dasharray:none;stroke-opacity:1" id="g10">
                <g transform="matrix(0.42297932,0,0,0.42297932,-11.083711,3.1945516)" style="fill:#000000;fill-opacity:1;stroke-width:2.36400008" id="g12">
<!--color: #004794-->
                </g>
            </g>
        </g>
    </g>
</svg>

<?xml version="1.0" encoding="UTF-8" standalone="no"?>
<svg id="svg7384" xmlns:rdf="http://www.w3.org/1999/02/22-rdf-syntax-ns#" style="enable-background:new" xmlns="http://www.w3.org/2000/svg" xmlns:osb="http://www.openswatchbook.org/uri/2009/osb" height="22" width="22" version="1.1" xmlns:cc="http://creativecommons.org/ns#" xmlns:dc="http://purl.org/dc/elements/1.1/">
 <metadata id="metadata90">
  <rdf:RDF>
   <cc:Work rdf:about="">
    <dc:format>image/svg+xml</dc:format>
    <dc:type rdf:resource="http://purl.org/dc/dcmitype/StillImage"/>
   </cc:Work>
  </rdf:RDF>
 </metadata>
 <g id="g6058" transform="translate(-624 -502)">
  <path id="path4169" d="m11 3c-4.4183 0-8 3.5817-8 8 0 4.418 3.5817 8 8 8 4.418 0 8-3.582 8-8 0-4.4183-3.582-8-8-8zm3.182 4.4648l1.414 1.4141-4.242 4.2421-1.4145 1.414-1.4141-1.414-2.1211-2.121 1.4141-1.4141 2.1211 2.1211 4.2425-4.2422z" transform="translate(624 502)" fill="#fff"/>
  <g id="g4158" transform="matrix(3.5433 0 0 3.5433 624 502)">
   <g id="g6" transform="matrix(.28222 0 0 .28222 -10.604 .24709)">
    <g id="g8" transform="matrix(.42298 0 0 .42298 -11.084 3.1946)"><!--color: #004794--></g>
   </g>
   <g id="g10" transform="matrix(.28222 0 0 .28222 -10.393 1.2296)" stroke="#000">
    <g id="g12" transform="matrix(.42298 0 0 .42298 -11.084 3.1946)" stroke-width="2.364"><!--color: #004794--></g>
   </g>
  </g>
 </g>
</svg>
